flags/ba.svg

<?xml version="1.0" encoding="UTF-8" standalone="no"?>
<!-- Created with Inkscape (http://www.inkscape.org/) -->
<svg
   xmlns:dc="http://purl.org/dc/elements/1.1/"
   xmlns:cc="http://web.resource.org/cc/"
   xmlns:rdf="http://www.w3.org/1999/02/22-rdf-syntax-ns#"
   xmlns:svg="http://www.w3.org/2000/svg"
   xmlns="http://www.w3.org/2000/svg"
   xmlns:sodipodi="http://sodipodi.sourceforge.net/DTD/sodipodi-0.dtd"
   xmlns:inkscape="http://www.inkscape.org/namespaces/inkscape"
   width="1000"
   height="500"
   id="svg11581"
   sodipodi:version="0.32"
   inkscape:version="0.44"
   version="1.0"
   sodipodi:docbase="C:\Documents and Settings\David Nelson\Archives\Svg"
   sodipodi:docname="Flag_of_Bosnia_and_Herzegovina.svg"
   viewBox="0 0 200 100">
  <defs
     id="defs11583" />
  <sodipodi:namedview
     id="base"
     pagecolor="#ffffff"
     bordercolor="#666666"
     borderopacity="1.0"
     gridtolerance="10000"
     guidetolerance="10"
     objecttolerance="50"
     inkscape:pageopacity="0.0"
     inkscape:pageshadow="2"
     inkscape:zoom="0.754"
     inkscape:cx="500"
     inkscape:cy="250"
     inkscape:document-units="px"
     inkscape:current-layer="layer1"
     width="200px"
     height="100px"
     showgrid="true"
     inkscape:grid-points="true"
     inkscape:grid-bbox="true"
     inkscape:object-nodes="false"
     inkscape:object-paths="false"
     inkscape:object-points="false"
     inkscape:window-width="853"
     inkscape:window-height="573"
     inkscape:window-x="11"
     inkscape:window-y="22" />
  <metadata
     id="metadata11586">
    <rdf:RDF>
      <cc:Work
         rdf:about="">
        <dc:format>image/svg+xml</dc:format>
        <dc:type
           rdf:resource="http://purl.org/dc/dcmitype/StillImage" />
      </cc:Work>
    </rdf:RDF>
  </metadata>
  <g
     inkscape:label="Layer 1"
     inkscape:groupmode="layer"
     id="layer1">
    <rect
       style="opacity:1;fill:#171796;fill-opacity:1;fill-rule:evenodd;stroke:none;stroke-width:1.403;stroke-linecap:square;stroke-miterlimit:4;stroke-dasharray:none;stroke-opacity:1"
       id="rect11593"
       width="200"
       height="100"
       x="0"
       y="0" />
    <path
       style="fill:#f7d117;fill-opacity:1;fill-rule:evenodd;stroke:none;stroke-width:1px;stroke-linecap:butt;stroke-linejoin:miter;stroke-opacity:1"
       d="M 53,0 L 153,0 L 153,100 L 53,0 z "
       id="path11595" />
    <path
       id="path11682"
       d="M 81.53125,51.125 L 85,51.125 L 88.46875,51.125 L 90.58396,57.685662 L 85,53.625 L 79.41604,57.685661 L 81.53125,51.125 z "
       style="fill:white;fill-opacity:1;fill-rule:evenodd;stroke:none;stroke-width:1px;stroke-linecap:butt;stroke-linejoin:miter;stroke-opacity:1"
       transform="translate(-50,-51.125)"
       sodipodi:nodetypes="ccccccc" />
    <path
       id="path11689"
       d="M 81.53125,51.125 L 75.964963,47.064338 L 82.875,47.0625 L 85,40.5 L 87.125,47.0625 L 94.035037,47.064339 L 88.46875,51.125 L 85,51.125 L 81.53125,51.125 z "
       style="fill:white;fill-opacity:1;fill-rule:evenodd;stroke:none;stroke-width:1px;stroke-linecap:butt;stroke-linejoin:miter;stroke-opacity:1"
       transform="translate(50,48.875)"
       sodipodi:nodetypes="ccccccccc" />
    <path
       style="fill:white;fill-opacity:1;fill-rule:nonzero;stroke:none;stroke-width:1px;stroke-linecap:butt;stroke-linejoin:miter;stroke-opacity:1"
       d="M 79.41604,57.685661 L 85,40.5 L 90.58396,57.685662 L 75.964963,47.064338 L 94.035037,47.064339 L 79.41604,57.685661 z "
       id="path11746"
       transform="translate(-37.5,-38.625)" />
    <path
       id="path11754"
       d="M 79.41604,57.685661 L 85,40.5 L 90.58396,57.685662 L 75.964963,47.064338 L 94.035037,47.064339 L 79.41604,57.685661 z "
       style="fill:white;fill-opacity:1;fill-rule:nonzero;stroke:none;stroke-width:1px;stroke-linecap:butt;stroke-linejoin:miter;stroke-opacity:1"
       transform="translate(-25,-26.125)" />
    <path
       style="fill:white;fill-opacity:1;fill-rule:nonzero;stroke:none;stroke-width:1px;stroke-linecap:butt;stroke-linejoin:miter;stroke-opacity:1"
       d="M 79.41604,57.685661 L 85,40.5 L 90.58396,57.685662 L 75.964963,47.064338 L 94.035037,47.064339 L 79.41604,57.685661 z "
       id="path11762"
       transform="translate(-12.5,-13.625)" />
    <path
       id="path11770"
       d="M 79.41604,57.685661 L 85,40.5 L 90.58396,57.685662 L 75.964963,47.064338 L 94.035037,47.064339 L 79.41604,57.685661 z "
       style="fill:white;fill-opacity:1;fill-rule:nonzero;stroke:none;stroke-width:1px;stroke-linecap:butt;stroke-linejoin:miter;stroke-opacity:1"
       transform="translate(0,-1.125)" />
    <path
       style="fill:white;fill-opacity:1;fill-rule:nonzero;stroke:none;stroke-width:1px;stroke-linecap:butt;stroke-linejoin:miter;stroke-opacity:1"
       d="M 79.41604,57.685661 L 85,40.5 L 90.58396,57.685662 L 75.964963,47.064338 L 94.035037,47.064339 L 79.41604,57.685661 z "
       id="path11778"
       transform="translate(12.5,11.375)" />
    <path
       id="path11786"
       d="M 79.41604,57.685661 L 85,40.5 L 90.58396,57.685662 L 75.964963,47.064338 L 94.035037,47.064339 L 79.41604,57.685661 z "
       style="fill:white;fill-opacity:1;fill-rule:nonzero;stroke:none;stroke-width:1px;stroke-linecap:butt;stroke-linejoin:miter;stroke-opacity:1"
       transform="translate(25,23.875)" />
    <path
       style="fill:white;fill-opacity:1;fill-rule:nonzero;stroke:none;stroke-width:1px;stroke-linecap:butt;stroke-linejoin:miter;stroke-opacity:1"
       d="M 79.41604,57.685661 L 85,40.5 L 90.58396,57.685662 L 75.964963,47.064338 L 94.035037,47.064339 L 79.41604,57.685661 z "
       id="path11794"
       transform="translate(37.5,36.375)" />
  </g>
</svg>

<svg xmlns="http://www.w3.org/2000/svg" width="1000" height="500" version="1.0" viewBox="0 0 200 100"><path d="M0 0h200v100H0z" style="opacity:1;fill:#171796;fill-opacity:1;fill-rule:evenodd;stroke:none;stroke-width:1.403;stroke-linecap:square;stroke-miterlimit:4;stroke-dasharray:none;stroke-opacity:1"/><path d="M53 0h100v100z" style="fill:#f7d117;fill-opacity:1;fill-rule:evenodd;stroke:none;stroke-width:1px;stroke-linecap:butt;stroke-linejoin:miter;stroke-opacity:1"/><path d="M81.531 51.125h6.938l2.115 6.56L85 53.626l-5.584 4.06z" style="fill:#fff;fill-opacity:1;fill-rule:evenodd;stroke:none;stroke-width:1px;stroke-linecap:butt;stroke-linejoin:miter;stroke-opacity:1" transform="translate(-50 -51.125)"/><path d="m81.531 51.125-5.566-4.06 6.91-.002L85 40.5l2.125 6.563 6.91.001-5.566 4.061H81.53" style="fill:#fff;fill-opacity:1;fill-rule:evenodd;stroke:none;stroke-width:1px;stroke-linecap:butt;stroke-linejoin:miter;stroke-opacity:1" transform="translate(50 48.875)"/><path d="M79.416 57.686 85 40.5l5.584 17.186-14.619-10.622h18.07z" style="fill:#fff;fill-opacity:1;fill-rule:nonzero;stroke:none;stroke-width:1px;stroke-linecap:butt;stroke-linejoin:miter;stroke-opacity:1" transform="translate(-37.5 -38.625)"/><path d="M79.416 57.686 85 40.5l5.584 17.186-14.619-10.622h18.07z" style="fill:#fff;fill-opacity:1;fill-rule:nonzero;stroke:none;stroke-width:1px;stroke-linecap:butt;stroke-linejoin:miter;stroke-opacity:1" transform="translate(-25 -26.125)"/><path d="M79.416 57.686 85 40.5l5.584 17.186-14.619-10.622h18.07z" style="fill:#fff;fill-opacity:1;fill-rule:nonzero;stroke:none;stroke-width:1px;stroke-linecap:butt;stroke-linejoin:miter;stroke-opacity:1" transform="translate(-12.5 -13.625)"/><path d="M79.416 57.686 85 40.5l5.584 17.186-14.619-10.622h18.07z" style="fill:#fff;fill-opacity:1;fill-rule:nonzero;stroke:none;stroke-width:1px;stroke-linecap:butt;stroke-linejoin:miter;stroke-opacity:1" transform="translate(0 -1.125)"/><path d="M79.416 57.686 85 40.5l5.584 17.186-14.619-10.622h18.07z" style="fill:#fff;fill-opacity:1;fill-rule:nonzero;stroke:none;stroke-width:1px;stroke-linecap:butt;stroke-linejoin:miter;stroke-opacity:1" transform="translate(12.5 11.375)"/><path d="M79.416 57.686 85 40.5l5.584 17.186-14.619-10.622h18.07z" style="fill:#fff;fill-opacity:1;fill-rule:nonzero;stroke:none;stroke-width:1px;stroke-linecap:butt;stroke-linejoin:miter;stroke-opacity:1" transform="translate(25 23.875)"/><path d="M79.416 57.686 85 40.5l5.584 17.186-14.619-10.622h18.07z" style="fill:#fff;fill-opacity:1;fill-rule:nonzero;stroke:none;stroke-width:1px;stroke-linecap:butt;stroke-linejoin:miter;stroke-opacity:1" transform="translate(37.5 36.375)"/></svg>
